!!!SOCIAL_FUNCTION:	game songs
!!!PDT:	1932
!!!OTL: No_125_Game_Song_(b).krn
!!!REG: Southwest
!!!LANG: Non-Tone
!!!LING_GROUP: Yuman-Cochimi
**kern	**kern
*staff2	*staff1
=1-	=1-
*clefF4	*clefF4
*k[f#]	*k[f#]
*M3/4	*M3/4
4GG/	2r
4GG/	.
4r	8r
.	16D\LL
.	16D\JJ
=2	=2
4GG/	8.D\L
.	16D\Jk
4GG/	8.D\L
.	16D\Jk
4r	4D\
=3	=3
4GG/	12D\L
.	12D\
.	12D\J
4GG/	8BB/
.	8r
4r	16BB/LK
.	8.BB/J
=4||	=4||
*M2/4	*M2/4
2r	8.D\L
.	16D\Jk
.	8.D\L
.	16D\Jk
=5	=5
2r	8.D\L
.	16D\Jk
.	4D\
=6	=6
2r	12D\L
.	12D\
.	12D\J
.	8.BB/L
.	16D/Jk
=7	=7
=	=
*M3/4	*M3/4
2.r	8.D\L
.	16D\Jk
.	16E\LK
.	8.D\J
.	8.E\L
.	16E\Jk
=8||	=8||
*M2/4	*M2/4
2r	8E\L
.	8D\J
.	8.BB/L
.	16D/Jk
=9||	=9||
*M3/4	*M3/4
2.r	8.D\L
.	16D\Jk
.	16D\LK
.	8.E\J
.	8.D\L
.	16D\Jk
=10	=10
2.r	4D\
.	8BB/
.	8r
.	16BB/LK
.	8.BB/J
=11||	=11||
*M2/4	*M2/4
2r	8.D\L
.	16D\Jk
.	8.D\L
.	16D\Jk
=12	=12
2r	8.D\L
.	16D\Jk
.	4D\
=13	=13
2r	12D\L
.	12D\
.	12E\J
.	8.r
.	16A\
=14	=14
2r	8.A\L
.	16F#\Jk
.	12A\L
.	12A\
.	12F#\J
=15	=15
2r	8.A\L
.	16A\Jk
.	8.A\L
.	16F#\Jk
=16	=16
2r	12E\L
.	12E\
.	12D\J
.	8.E\L
.	16D\Jk
=17	=17
2r	12E\L
.	12F#\
.	12D\J
.	8.E\L
.	16E\Jk
=18	=18
2r	8.E\L
.	16D\Jk
.	8.BB/L
.	16D/Jk
=19||	=19||
*M3/4	*M3/4
2.r	8.D\L
.	16D\Jk
.	16E\LK
.	8.E\J
.	8.D\L
.	16D\Jk
=20	=20
2.r	4D\
.	8BB/
.	8r
.	16D/LK
.	8.BB/J
=21||	=21||
*M2/4	*M2/4
2r	8.D\L
.	16D\Jk
.	8.D\L
.	16D\Jk
=22	=22
2r	8.D\L
.	16D\Jk
.	4D\
=23||	=23||
*M3/4	*M3/4
2.r	12D\L
.	12D\
.	12D\J
.	8BB/
.	8r
.	16D/LK
.	8.BB/J
=24||	=24||
*M2/4	*M2/4
2r	8.D\L
.	16D\Jk
.	8.D\L
.	16D\Jk
=25	=25
2r	8.D\L
.	16D\Jk
.	4D\
=26	=26
2r	12D\L
.	12D\
.	12D\J
.	4r
==:|!	==:|!
*-	*-
